X:1
T:Stabat Mater (Dykes), 88.78.87
T:Stabat Mater (Dykes), 88.78.87
T:John Bacchus Dykes, 1875
T:Public Domain Courtesy of the Cyber Hymnal™
C:John Bacchus Dykes, 1875
Z:Public Domain
Z:Courtesy of the Cyber Hymnal™
%%score ( 1 2 ) ( 3 4 )
L:1/8
Q:1/4=135
M:3/2
K:F
V:1 treble 
V:2 treble 
V:3 bass 
V:4 bass 
V:1
 F2 [FG]2 | [FA]6 F2 [FB]2 [FA]2 | (A2 G2) F4 [CF]2 [EG]2 | [FA]6 F2 [GB]2 [FA]2 | (A2 G2) F4 | %5
 [CA]2 [DA]2 | [DG]2 [EG]2 [FG]4 G4 | [EG]8 [_EG]2 [FA]2 | [FB]6 [_EA]2 [EG]2 [EA]2 | %9
 [_EA]4 [DB]4 [CA]2 [FA]2 | [EA]6 [D^G]2 [D^F]2 [DG]2 | [D^G]4 [CA]4 F2 [F=G]2 | %12
 [FG]2 [FA]2 B4 (A2 G2) | F8 |] %14
V:2
 F2 x2 | x12 | E4 F4 x4 | x12 | E4 F4 | x4 | x8 (E2 D2) | x12 | x12 | x12 | x12 | x8 F2 x2 | %12
 x4 (E2 D2) E4 | F8 |] %14
V:3
 [F,A,]2 [F,B,]2 | [F,C]6 [F,A,]2 [F,D]2 [F,C]2 | (C2 B,2) [F,A,]2 [G,B,]2 [A,C]2 [G,B,]2 | %3
 [F,C]6 [D,D]2 [G,B,]2 [G,B,]2 | (C2 B,2) A,2 B,2 | [F,C]2 [F,C]2 | %6
 [G,C]2 [G,C]2 (=B,2 A,2) [G,B,]4 | [C,C]8 [C_E]2 [CE]2 | [B,D]6 [F,C]2 [F,B,]2 [F,C]2 | %9
 F,4 (F,2 G,2) [F,A,]2 [D,=B,]2 | [E,C]6 [E,=B,]2 [E,A,]2 [E,B,]2 | %11
 [E,=B,]4 [A,,C]4 [D,A,]2 [_B,,_B,]2 | [C,B,]2 [C,A,]2 [C,G,]4 (C2 B,2) | [F,A,]8 |] %14
V:4
 x4 | x12 | C,4 x8 | x12 | C,4 F,4 | x4 | x4 G,4 x4 | x12 | x12 | F,4 =B,,4 x4 | x12 | x12 | %12
 x8 C,4 | x8 |] %14

